images_sukapura_svg/cmd/32/thesaurusdialog.svg

<svg height="32" viewBox="0 0 32 32" width="32" xmlns="http://www.w3.org/2000/svg" xmlns:xlink="http://www.w3.org/1999/xlink"><linearGradient id="a" gradientTransform="matrix(1.875 0 0 1.7333333 1 2.266667)" gradientUnits="userSpaceOnUse" x1="7" x2="7" y1="16" y2="1"><stop offset="0" stop-color="#0040dd"/><stop offset="1" stop-color="#0a84ff"/></linearGradient><linearGradient id="b" gradientUnits="userSpaceOnUse" x1="13" x2="13" y1="23" y2="5"><stop offset="0" stop-color="#f7f7f7"/><stop offset=".22222222" stop-color="#fff"/><stop offset=".83333331" stop-color="#fff"/><stop offset="1" stop-color="#f7f7f7"/></linearGradient><linearGradient id="c" gradientUnits="userSpaceOnUse" x1="19.5" x2="19.5" y1="21.500001" y2="14.5"><stop offset="0" stop-color="#cfcfcf"/><stop offset=".07142864" stop-color="#e7e7e7"/><stop offset=".07142864" stop-color="#fff"/><stop offset=".5" stop-color="#f3f3f3"/><stop offset=".93333334" stop-color="#f9f9f9"/><stop offset=".93333334" stop-color="#fcfcfc"/><stop offset="1" stop-color="#fff"/></linearGradient><linearGradient id="d" gradientUnits="userSpaceOnUse" x1="19.428571" x2="19.428571" y1="18.25" y2="21.285715"><stop offset="0" stop-color="#f8f8f8"/><stop offset="1" stop-color="#fff"/></linearGradient><path d="m1 4h30v26h-30z" fill="url(#a)"/><path d="m3 2v25h26v-25c-4.48634.4203966-9.213069.1396615-13 2.6-3.554304-1.973709-8.2931603-2.2641055-13-2.6z" fill="#69696e"/><path d="m4.3 25.7c4.1946464-.08739 7.989141-.620022 11.7 1.3 3.500067-2.183217 7.728274-1.3 11.7-1.3v-22.4c-6.5 0-10.4 1.3-11.7 2.6-1.3-1.3-5.2-2.6-11.7-2.6z" fill="#fff" fill-rule="evenodd"/><g transform="translate(0 -2)"><path d="m17 9v1c2.405167-1.6580554 5.900468-1.4992205 9-2v-1c-3.271862.5260486-7.418469.5996424-9 2z" fill="#ff4035"/><path d="m17 13v1c2.405167-1.658055 5.900468-1.49922 9-2v-1c-3.271862.526049-7.418469.599642-9 2z" fill="#af52de"/><g fill="#98989d"><path d="m17 17v1c2.405167-1.658055 5.917417-1.261932 9.016949-1.762712v-1c-3.271862.526049-7.435418.362354-9.016949 1.762712z"/><path d="m17 21v1c2.405167-1.658055 5.900468-1.126339 9-1.627119v-1c-3.271862.526049-7.418469.226761-9 1.627119z"/><path d="m17 25v1c2.405167-1.658055 5.934366-.889051 9.033898-1.389831v-1c-3.271862.526049-7.452367-.010527-9.033898 1.389831z"/></g></g><g fill="#98989d" transform="matrix(-1 0 0 1 32.033898 -2)"><path d="m17 9v1c2.405167-1.6580554 5.900468-1.4992205 9-2v-1c-3.271862.5260486-7.418469.5996424-9 2z"/><path d="m17 13v1c2.405167-1.658055 5.900468-1.49922 9-2v-1c-3.271862.526049-7.418469.599642-9 2z"/><path d="m17 17v1c2.405167-1.658055 5.917417-1.261932 9.016949-1.762712v-1c-3.271862.526049-7.435418.362354-9.016949 1.762712z"/><path d="m17 21v1c2.405167-1.658055 5.900468-1.126339 9-1.627119v-1c-3.271862.526049-7.418469.226761-9 1.627119z"/><path d="m17 25v1c2.405167-1.658055 5.934366-.889051 9.033898-1.389831v-1c-3.271862.526049-7.452367-.010527-9.033898 1.389831z"/></g><g transform="matrix(1.33333 0 0 1.33333 .00008 .00008)"><path d="m15.749979 12.749972h7.500019v10.500026h-7.500019z" fill="url(#b)"/><path d="m16 12c-.554 0-1 .446-1 1v10c0 .554.446 1 1 1h7c.554 0 1-.446 1-1v-10c0-.554-.446-1-1-1zm-.250021.749972h7.500019v10.500026h-7.500019z" fill="#848489"/><g stroke-width=".607143"><path d="m16.874982 13.499974h5.250013v9.000022h-5.250013z" fill="#626262"/><path d="m17.249983 14.249976h4.500011v7.500018h-4.500011z" fill="url(#c)"/><path d="m17.999992 14.999977h3l.000008 3.000023h-3z" fill="#dadada"/><path d="m18 18h3v3h-3z" fill="url(#d)"/></g></g></svg>

<?xml version="1.0" encoding="UTF-8" standalone="no"?>
<svg
   xmlns:dc="http://purl.org/dc/elements/1.1/"
   xmlns:cc="http://creativecommons.org/ns#"
   xmlns:rdf="http://www.w3.org/1999/02/22-rdf-syntax-ns#"
   xmlns:svg="http://www.w3.org/2000/svg"
   xmlns="http://www.w3.org/2000/svg"
   xmlns:xlink="http://www.w3.org/1999/xlink"
   xmlns:sodipodi="http://sodipodi.sourceforge.net/DTD/sodipodi-0.dtd"
   xmlns:inkscape="http://www.inkscape.org/namespaces/inkscape"
   viewBox="0 0 32 32"
   version="1.1"
   id="svg10"
   sodipodi:docname="thesaurusdialog.svg"
   inkscape:export-filename="/home/rizmut/Dokumen/Rizmut/Github/libreoffice-style-sukapura/images_sukapura/cmd/32/thesaurusdialog.png"
   inkscape:export-xdpi="96"
   inkscape:export-ydpi="96"
   width="32"
   height="32"
   inkscape:version="0.92.3 (unknown)">
  <metadata
     id="metadata16">
    <rdf:RDF>
      <cc:Work
         rdf:about="">
        <dc:format>image/svg+xml</dc:format>
        <dc:type
           rdf:resource="http://purl.org/dc/dcmitype/StillImage" />
        <dc:title></dc:title>
      </cc:Work>
    </rdf:RDF>
  </metadata>
  <defs
     id="defs14">
    <linearGradient
       gradientTransform="translate(-26.983051,-6.9830508)"
       id="a"
       gradientUnits="userSpaceOnUse"
       x1="14"
       x2="13.79661"
       y1="22"
       y2="2.1355929">
      <stop
         offset="0"
         stop-color="#0040dd"
         id="stop2" />
      <stop
         offset="1"
         stop-color="#0a84ff"
         id="stop4" />
    </linearGradient>
    <linearGradient
       inkscape:collect="always"
       xlink:href="#a"
       id="linearGradient880"
       x1="7"
       y1="16"
       x2="7"
       y2="1"
       gradientUnits="userSpaceOnUse"
       gradientTransform="matrix(1.875,0,0,1.7333333,1,2.2666665)" />
    <linearGradient
       id="a-3"
       gradientUnits="userSpaceOnUse"
       x1="11"
       x2="11"
       y1="21"
       y2="3"
       gradientTransform="translate(2,2)">
      <stop
         offset="0"
         stop-color="#f7f7f7"
         id="stop2-6" />
      <stop
         offset=".22222222"
         stop-color="#fff"
         id="stop4-7" />
      <stop
         offset=".83333331"
         stop-color="#fff"
         id="stop6-5" />
      <stop
         offset="1"
         stop-color="#f7f7f7"
         id="stop8" />
    </linearGradient>
    <linearGradient
       id="b-3"
       gradientUnits="userSpaceOnUse"
       x1="12.117647"
       x2="12.117647"
       y1="17.352942"
       y2="5.8235288"
       gradientTransform="matrix(0.60714286,0,0,0.60714286,12.142857,10.964286)">
      <stop
         offset="0"
         stop-color="#cfcfcf"
         id="stop11-5" />
      <stop
         offset="0.07142864"
         stop-color="#e7e7e7"
         id="stop13-6" />
      <stop
         offset="0.07142864"
         stop-color="#fff"
         id="stop15" />
      <stop
         offset=".5"
         stop-color="#f3f3f3"
         id="stop17" />
      <stop
         offset="0.93333334"
         stop-color="#f9f9f9"
         id="stop19" />
      <stop
         offset="0.93333334"
         stop-color="#fcfcfc"
         id="stop21" />
      <stop
         offset="1"
         stop-color="#fff"
         id="stop23" />
    </linearGradient>
    <linearGradient
       id="c"
       gradientUnits="userSpaceOnUse"
       x1="12"
       x2="12"
       y1="12"
       y2="17"
       gradientTransform="matrix(0.60714286,0,0,0.60714286,12.142857,10.964286)">
      <stop
         offset="0"
         stop-color="#f8f8f8"
         id="stop26" />
      <stop
         offset="1"
         stop-color="#fff"
         id="stop28" />
    </linearGradient>
  </defs>
  <sodipodi:namedview
     pagecolor="#ffffff"
     bordercolor="#666666"
     borderopacity="1"
     objecttolerance="10"
     gridtolerance="10"
     guidetolerance="10"
     inkscape:pageopacity="0"
     inkscape:pageshadow="2"
     inkscape:window-width="1366"
     inkscape:window-height="706"
     id="namedview12"
     showgrid="true"
     inkscape:zoom="5.2149125"
     inkscape:cx="1.0354882"
     inkscape:cy="0.56755216"
     inkscape:window-x="0"
     inkscape:window-y="0"
     inkscape:window-maximized="1"
     inkscape:current-layer="svg10"
     inkscape:snap-global="true">
    <inkscape:grid
       type="xygrid"
       id="grid823" />
  </sodipodi:namedview>
  <g
     id="g1035">
    <rect
       y="4"
       x="1"
       height="26"
       width="30"
       id="rect872"
       style="fill:url(#linearGradient880);fill-opacity:1;stroke:none;stroke-width:1.80277574;stroke-opacity:1" />
    <path
       id="path2-6"
       d="M 3,2 V 27 H 29 V 2 C 24.51366,2.4203966 19.786931,2.1396615 16,4.6 12.445696,2.626291 7.7068397,2.3358945 3,2 Z"
       style="fill:#69696e;fill-opacity:1"
       inkscape:connector-curvature="0"
       sodipodi:nodetypes="cccccc" />
    <path
       id="path4"
       d="M 4.3,25.7 C 8.4946464,25.61261 12.289141,25.079978 16,27 19.500067,24.816783 23.728274,25.7 27.7,25.7 V 3.3 C 21.2,3.3 17.3,4.6 16,5.9 14.7,4.6 10.8,3.3 4.3,3.3 Z"
       style="fill:#ffffff;fill-rule:evenodd"
       inkscape:connector-curvature="0"
       sodipodi:nodetypes="ccccccc" />
    <g
       transform="translate(0,-2)"
       id="g990">
      <path
         style="fill:#ff4035;fill-opacity:1;stroke:none;stroke-width:1px;stroke-linecap:butt;stroke-linejoin:miter;stroke-opacity:1"
         d="m 17,9 v 1 C 19.405167,8.3419446 22.900468,8.5007795 26,8 V 7 c -3.271862,0.5260486 -7.418469,0.5996424 -9,2 z"
         id="path961"
         inkscape:connector-curvature="0"
         sodipodi:nodetypes="ccccc" />
      <path
         style="fill:#af52de;fill-opacity:1;stroke:none;stroke-width:1px;stroke-linecap:butt;stroke-linejoin:miter;stroke-opacity:1"
         d="m 17,13 v 1 c 2.405167,-1.658055 5.900468,-1.49922 9,-2 v -1 c -3.271862,0.526049 -7.418469,0.599642 -9,2 z"
         id="path965"
         inkscape:connector-curvature="0"
         sodipodi:nodetypes="ccccc" />
      <path
         style="fill:#98989d;fill-opacity:1;stroke:none;stroke-width:1px;stroke-linecap:butt;stroke-linejoin:miter;stroke-opacity:1"
         d="m 17,17 v 1 c 2.405167,-1.658055 5.917417,-1.261932 9.016949,-1.762712 v -1 C 22.745087,15.763337 18.581531,15.599642 17,17 Z"
         id="path969"
         inkscape:connector-curvature="0"
         sodipodi:nodetypes="ccccc" />
      <path
         style="fill:#98989d;fill-opacity:1;stroke:none;stroke-width:1px;stroke-linecap:butt;stroke-linejoin:miter;stroke-opacity:1"
         d="m 17,21 v 1 c 2.405167,-1.658055 5.900468,-1.126339 9,-1.627119 v -1 C 22.728138,19.89893 18.581531,19.599642 17,21 Z"
         id="path973"
         inkscape:connector-curvature="0"
         sodipodi:nodetypes="ccccc" />
      <path
         style="fill:#98989d;fill-opacity:1;stroke:none;stroke-width:1px;stroke-linecap:butt;stroke-linejoin:miter;stroke-opacity:1"
         d="m 17,25 v 1 c 2.405167,-1.658055 5.934366,-0.889051 9.033898,-1.389831 v -1 C 22.762036,24.136218 18.581531,23.599642 17,25 Z"
         id="path977"
         inkscape:connector-curvature="0"
         sodipodi:nodetypes="ccccc" />
    </g>
    <g
       transform="matrix(-1,0,0,1,32.033898,-2)"
       id="g1010">
      <path
         sodipodi:nodetypes="ccccc"
         inkscape:connector-curvature="0"
         id="path992"
         d="m 17,9 v 1 C 19.405167,8.3419446 22.900468,8.5007795 26,8 V 7 c -3.271862,0.5260486 -7.418469,0.5996424 -9,2 z"
         style="fill:#98989d;fill-opacity:1;stroke:none;stroke-width:1px;stroke-linecap:butt;stroke-linejoin:miter;stroke-opacity:1" />
      <path
         sodipodi:nodetypes="ccccc"
         inkscape:connector-curvature="0"
         id="path996"
         d="m 17,13 v 1 c 2.405167,-1.658055 5.900468,-1.49922 9,-2 v -1 c -3.271862,0.526049 -7.418469,0.599642 -9,2 z"
         style="fill:#98989d;fill-opacity:1;stroke:none;stroke-width:1px;stroke-linecap:butt;stroke-linejoin:miter;stroke-opacity:1" />
      <path
         sodipodi:nodetypes="ccccc"
         inkscape:connector-curvature="0"
         id="path1000"
         d="m 17,17 v 1 c 2.405167,-1.658055 5.917417,-1.261932 9.016949,-1.762712 v -1 C 22.745087,15.763337 18.581531,15.599642 17,17 Z"
         style="fill:#98989d;fill-opacity:1;stroke:none;stroke-width:1px;stroke-linecap:butt;stroke-linejoin:miter;stroke-opacity:1" />
      <path
         sodipodi:nodetypes="ccccc"
         inkscape:connector-curvature="0"
         id="path1004"
         d="m 17,21 v 1 c 2.405167,-1.658055 5.900468,-1.126339 9,-1.627119 v -1 C 22.728138,19.89893 18.581531,19.599642 17,21 Z"
         style="fill:#98989d;fill-opacity:1;stroke:none;stroke-width:1px;stroke-linecap:butt;stroke-linejoin:miter;stroke-opacity:1" />
      <path
         sodipodi:nodetypes="ccccc"
         inkscape:connector-curvature="0"
         id="path1008"
         d="m 17,25 v 1 c 2.405167,-1.658055 5.934366,-0.889051 9.033898,-1.389831 v -1 C 22.762036,24.136218 18.581531,23.599642 17,25 Z"
         style="fill:#98989d;fill-opacity:1;stroke:none;stroke-width:1px;stroke-linecap:butt;stroke-linejoin:miter;stroke-opacity:1" />
    </g>
  </g>
  <g
     transform="matrix(1.33333,0,0,1.33333,8e-5,8e-5)"
     id="g895">
    <path
       id="path31"
       d="m 15.749979,12.749972 h 7.500019 v 10.500026 h -7.500019 z"
       style="fill:url(#a-3)"
       inkscape:connector-curvature="0"
       sodipodi:nodetypes="ccccc" />
    <path
       id="path33"
       d="m 16,12 c -0.554,0 -1,0.446 -1,1 v 10 c 0,0.554 0.446,1 1,1 h 7 c 0.554,0 1,-0.446 1,-1 V 13 c 0,-0.554 -0.446,-1 -1,-1 z m -0.250021,0.749972 h 7.500019 v 10.500026 h -7.500019 z"
       style="fill:#848489"
       inkscape:connector-curvature="0"
       sodipodi:nodetypes="sssssssssccccc" />
    <path
       id="path35"
       d="m 16.874982,13.499974 h 5.250013 v 9.000022 h -5.250013 z"
       style="fill:#626262;stroke-width:0.60714287"
       inkscape:connector-curvature="0"
       sodipodi:nodetypes="ccccc" />
    <path
       id="path37"
       d="m 17.249983,14.249976 h 4.500011 v 7.500018 h -4.500011 z"
       style="fill:url(#b-3);stroke-width:0.60714287"
       inkscape:connector-curvature="0"
       sodipodi:nodetypes="ccccc" />
    <path
       id="path39"
       d="m 17.999992,14.999977 h 3 L 21,18 h -3 z"
       style="fill:#dadada;stroke-width:0.60714287"
       inkscape:connector-curvature="0"
       sodipodi:nodetypes="ccccc" />
    <path
       id="path41"
       d="m 18,18 h 3 v 3 h -3 z"
       style="fill:url(#c);stroke-width:0.60714287"
       inkscape:connector-curvature="0"
       sodipodi:nodetypes="ccccc" />
  </g>
</svg>
